dist/assets/img/main-logo.svg

<svg width="157" height="44" viewBox="0 0 157 44" fill="none" xmlns="http://www.w3.org/2000/svg">
<g clip-path="url(#clip0_3487_5)">
<g clip-path="url(#clip1_3487_5)">
<path d="M7.83594 8.65921L9.51524 14.8045L12.4074 13.2216L7.83594 8.65921Z" fill="#9C1006"/>
<path d="M35.7316 34.8231L34.0523 28.6778L31.1602 30.2607L35.7316 34.8231Z" fill="#9C1006"/>
<path d="M28.7344 33.9851L34.8918 35.6611L30.3204 31.0987L28.7344 33.9851Z" fill="#9C1006"/>
<path d="M14.9265 9.49721L8.67578 7.82123L13.2472 12.3836L14.9265 9.49721Z" fill="#9C1006"/>
<path d="M34.8918 7.82123L28.7344 9.49721L30.3204 12.3836L34.8918 7.82123Z" fill="#9C1006"/>
<path d="M9.51524 28.6778L7.83594 34.8231L12.4074 30.2607L9.51524 28.6778Z" fill="#9C1006"/>
<path d="M34.0523 14.8976L35.7316 8.65921L31.1602 13.2216L34.0523 14.8976Z" fill="#9C1006"/>
<path d="M8.67578 35.6611L14.8332 33.9851L13.2472 31.0987L8.67578 35.6611Z" fill="#9C1006"/>
<path d="M9.34944 26.974C9.33137 26.9605 9.3124 26.9482 9.29266 26.9372L1.92969 22.8464H19.1297L12.9721 28.9918L10.0344 27.4002L10.0195 27.3925L9.68656 27.2264L9.34944 26.974Z" stroke="#9C1006" stroke-linejoin="round"/>
<path d="M27.4479 10.0005C27.453 10.0107 27.4584 10.0206 27.4642 10.0304L29.1333 12.8622L22.8906 19.0925V1.89226L27.0806 9.26729L27.2613 9.62806L27.4479 10.0005Z" stroke="#9C1006" stroke-linejoin="round"/>
<path d="M33.8465 16.3221C33.8705 16.34 33.8961 16.3558 33.9229 16.3692L34.2862 16.5505L41.6395 20.6359H24.4395L30.5971 14.4905L33.5027 16.0647L33.8465 16.3221Z" stroke="#9C1006" stroke-linejoin="round"/>
<path d="M10.0188 16.0898C10.0289 16.0848 10.0389 16.0794 10.0487 16.0736L12.8877 14.4069L19.129 20.6359H1.89844L9.28411 16.4565L9.64563 16.2761L10.0188 16.0898Z" stroke="#9C1006" stroke-linejoin="round"/>
<path d="M33.5497 27.3925C33.5396 27.3975 33.5296 27.4029 33.5199 27.4087L30.6809 29.0754L24.4395 22.8464H41.6701L34.2844 27.0258L33.9229 27.2062L33.5497 27.3925Z" stroke="#9C1006" stroke-linejoin="round"/>
<path d="M27.0288 34.1503C27.0152 34.1683 27.0028 34.1873 26.9918 34.2071L22.8906 41.5595V24.379L29.1355 30.5327L27.461 33.4573C27.4564 33.4654 27.4521 33.4735 27.4479 33.4818L27.2815 33.8139L27.0288 34.1503Z" stroke="#9C1006" stroke-linejoin="round"/>
<path d="M16.3547 9.70448C16.3728 9.68048 16.3886 9.6549 16.4021 9.62806L16.5837 9.26553L20.6795 1.92276V19.0925L14.5205 12.9457L16.0969 10.0476L16.3547 9.70448Z" stroke="#9C1006" stroke-linejoin="round"/>
<path d="M16.1218 33.4818C16.1167 33.4717 16.1113 33.4617 16.1055 33.4519L14.4365 30.6201L20.6792 24.3898V41.59L16.4891 34.215L16.3084 33.8542L16.1218 33.4818Z" stroke="#9C1006" stroke-linejoin="round"/>
</g>
</g>
<g clip-path="url(#clip2_3487_5)">
<g clip-path="url(#clip3_3487_5)">
<g clip-path="url(#clip4_3487_5)">
<path d="M50.3271 30.1292V16.9742C50.3271 14.1552 49.668 13.7794 47.6909 13.7794H47.126V14.1552C47.4084 14.2492 47.8792 14.813 47.8792 17.2561V26.1826V30.1292C47.8792 33.136 48.4441 33.6058 50.5154 33.6058H51.2686V33.23C50.9861 33.136 50.3271 32.5722 50.3271 30.1292ZM67.0858 21.0146C65.6736 21.0146 64.073 21.6724 63.1316 22.8939C62.4725 21.4844 61.2486 21.0146 59.9304 21.0146C58.3298 21.0146 57.2001 21.6724 56.541 22.3301H56.4469C56.1644 21.6724 55.5054 21.2965 54.1873 21.2965H51.8335V21.7663H52.3984C53.999 21.7663 54.2814 22.7999 54.2814 24.3973V33.6058H56.6352V23.6457C57.2942 22.8939 58.2357 22.2362 59.2714 22.2362C60.5895 22.2362 61.3427 23.1758 61.3427 25.8068V33.6998H63.6964V25.8068C63.6964 25.243 63.6964 24.3973 63.6023 23.9275C64.1672 23.1758 65.297 22.2362 66.3327 22.2362C67.6508 22.2362 68.404 23.1758 68.404 25.8068V33.6998H70.7577V25.8068C70.7577 21.9543 69.063 21.0146 67.0858 21.0146ZM79.5137 21.0146C77.5365 21.0146 76.5009 21.7663 75.936 22.4241H75.8418C75.5594 21.6724 74.9004 21.2026 73.5822 21.2026H71.2285V21.7663H71.7933C73.394 21.7663 73.6763 22.7999 73.6763 24.3973V38.6798H76.0301V33.136C76.7834 33.5118 77.9132 33.8877 79.3254 33.8877C82.7148 33.8877 84.3154 30.9748 84.3154 27.4042C84.2212 23.9275 82.6207 21.0146 79.5137 21.0146ZM78.4781 32.8541C77.7248 32.8541 76.7834 32.4783 75.936 32.1024V23.6457C76.5009 22.8939 77.2541 22.0482 78.6663 22.0482C80.7376 22.0482 81.6792 24.3973 81.6792 27.4042C81.7734 30.505 80.8318 32.8541 78.4781 32.8541ZM93.5421 21.3905C93.1655 21.1086 92.5064 21.0146 91.9416 21.0146C90.341 21.0146 89.3053 21.7663 88.7405 22.4241C88.458 21.6724 87.7989 21.2026 86.4809 21.2026H84.4095V21.7663H84.692C86.2925 21.7663 86.575 22.7999 86.575 24.3973V33.6058H88.9287V23.9275C89.4936 23.1758 90.341 22.612 91.4708 22.612C92.4123 22.612 93.1655 22.8939 93.5421 23.3637L94.5778 22.612C94.2011 22.0482 94.0128 21.6724 93.5421 21.3905ZM99.756 21.0146C96.4608 21.0146 94.5778 23.9275 94.5778 27.4982C94.5778 31.0688 96.4608 33.9817 100.133 33.9817C102.11 33.9817 103.71 33.23 104.84 31.2567L104.275 30.8808C103.334 32.1964 102.298 32.948 100.603 32.948C98.3438 32.948 97.0257 30.8808 97.0257 27.9679H104.84L104.934 26.9344C105.028 23.0818 103.334 21.0146 99.756 21.0146ZM97.4022 26.8404C97.4022 24.2094 98.6263 22.2362 100.133 22.2362C102.016 22.2362 102.863 23.9275 102.863 26.8404H97.4022ZM112.278 26.8404L110.678 26.1826C109.359 25.6189 108.606 24.8672 108.606 23.9275C108.606 22.8939 109.548 22.0482 111.242 22.0482C113.314 22.0482 114.538 23.0818 114.82 24.7732H115.385C115.385 23.4577 115.385 22.706 114.726 22.0482C114.067 21.3905 112.749 21.0146 110.772 21.0146C108.23 21.0146 106.441 22.2362 106.441 24.3973C106.441 26.0887 107.665 27.1223 109.642 27.9679L111.242 28.6257C112.843 29.2835 113.596 29.9412 113.596 30.9748C113.596 32.0084 112.655 32.8541 110.678 32.8541C108.418 32.8541 107.288 31.8205 107.006 30.1292H106.441C106.441 31.4447 106.441 32.1964 107.1 32.8541C107.759 33.5118 109.077 33.8877 111.148 33.8877C113.784 33.8877 115.762 32.6662 115.762 30.505C115.762 28.6257 114.538 27.6861 112.278 26.8404ZM123.011 26.8404L121.411 26.1826C120.093 25.6189 119.339 24.8672 119.339 23.9275C119.339 22.8939 120.281 22.0482 121.976 22.0482C124.047 22.0482 125.271 23.0818 125.553 24.7732H126.118C126.118 23.4577 126.118 22.706 125.459 22.0482C124.8 21.3905 123.482 21.0146 121.505 21.0146C118.963 21.0146 117.174 22.2362 117.174 24.3973C117.174 26.0887 118.398 27.1223 120.375 27.9679L121.976 28.6257C123.576 29.2835 124.329 29.9412 124.329 30.9748C124.329 32.0084 123.388 32.8541 121.411 32.8541C119.151 32.8541 118.021 31.8205 117.739 30.1292H117.174C117.174 31.4447 117.174 32.1964 117.833 32.8541C118.492 33.5118 119.81 33.8877 121.881 33.8877C124.518 33.8877 126.495 32.6662 126.495 30.505C126.495 28.6257 125.271 27.6861 123.011 26.8404ZM129.884 19.6991C130.637 19.6991 131.108 19.2293 131.108 18.4776C131.108 17.538 130.449 16.7862 129.602 16.7862C128.849 16.7862 128.378 17.2561 128.378 18.0078C128.378 18.9474 129.037 19.6991 129.884 19.6991ZM129.037 21.2965H126.683V21.7663H127.248C128.849 21.7663 129.131 22.7999 129.131 24.3973V33.6058H131.485V24.3973C131.391 21.7663 130.826 21.2965 129.037 21.2965ZM139.017 21.0146C135.345 21.0146 133.179 23.9275 133.179 27.4982C133.179 31.0688 135.251 33.9817 139.017 33.9817C142.689 33.9817 144.854 31.0688 144.854 27.4982C144.854 23.9275 142.689 21.0146 139.017 21.0146ZM139.017 32.8541C137.04 32.8541 135.721 30.505 135.721 27.4982C135.721 24.4913 137.04 22.1422 139.017 22.1422C140.994 22.1422 142.312 24.4913 142.312 27.4982C142.312 30.505 140.994 32.8541 139.017 32.8541ZM152.575 21.0146C150.974 21.0146 149.844 21.6724 149.185 22.3301H148.997C148.715 21.6724 148.056 21.2965 146.737 21.2965H144.383V21.7663H144.948C146.549 21.7663 146.831 22.7999 146.831 24.3973V33.6058H149.185V23.6457C149.844 22.8939 150.785 22.2362 151.821 22.2362C153.234 22.2362 154.74 23.1758 154.74 25.8068V33.6998H157.094V25.8068C157 21.9543 154.74 21.0146 152.575 21.0146Z" fill="#9C1006"/>
</g>
</g>
</g>
<defs>
<clipPath id="clip0_3487_5">
<rect width="44" height="44" fill="white"/>
</clipPath>
<clipPath id="clip1_3487_5">
<rect width="44" height="44" fill="white"/>
</clipPath>
<clipPath id="clip2_3487_5">
<rect width="110" height="26.23" fill="white" transform="translate(47 13)"/>
</clipPath>
<clipPath id="clip3_3487_5">
<rect width="110" height="26.23" fill="white" transform="translate(47 13)"/>
</clipPath>
<clipPath id="clip4_3487_5">
<rect width="110" height="26.2385" fill="white" transform="translate(47 12.9957)"/>
</clipPath>
</defs>
</svg>

<svg xmlns="http://www.w3.org/2000/svg" fill="none" viewBox="0 0 157 44"><g clip-path="url(#clip0_3487_5)"><g clip-path="url(#clip1_3487_5)"><path fill="#9C1006" d="m7.84 8.66 1.68 6.14 2.89-1.58zm27.89 26.16-1.68-6.14-2.89 1.58zm-7-.83 6.16 1.67-4.57-4.56zm-13.8-24.49-6.25-1.68 4.57 4.56zm19.97-1.68-6.17 1.68 1.59 2.88zm-25.38 20.86-1.68 6.14 4.57-4.56zm24.53-13.78 1.68-6.24-4.57 4.56zm-25.37 20.76 6.15-1.67-1.58-2.9z"/><path stroke="#9C1006" stroke-linejoin="round" d="m9.35 26.97-.06-.03-7.36-4.1h17.2l-6.16 6.15-2.94-1.59h-.01l-.33-.17zm18.1-16.97.01.03 1.67 2.83-6.24 6.23v-17.2l4.2 7.38.17.36zm6.4 6.32.07.05.37.18 7.35 4.09h-17.2l6.16-6.15 2.9 1.57zm-23.83-.23.03-.02 2.84-1.66 6.24 6.23h-17.23l7.38-4.18.37-.18zm23.53 11.31h-.03l-2.84 1.68-6.24-6.23h17.23l-7.39 4.18-.36.18zm-6.52 6.75-.04.06-4.1 7.35v-17.18l6.25 6.15-1.68 2.93-.01.02-.17.33zm-10.68-24.45.05-.07.18-.36 4.1-7.35v17.17l-6.16-6.14 1.58-2.9zm-.23 23.78-.01-.03-1.67-2.83 6.24-6.23v17.2l-4.2-7.37-.17-.37z"/></g></g><g clip-path="url(#clip2_3487_5)"><g clip-path="url(#clip3_3487_5)"><g clip-path="url(#clip4_3487_5)"><path fill="#9C1006" d="M50.33 30.13v-13.16c0-2.81-.66-3.2-2.64-3.2h-.56v.39c.28.09.75.65.75 3.1v12.87c0 3 .56 3.48 2.64 3.48h.75v-.38c-.28-.1-.94-.66-.94-3.1m16.76-9.12c-1.42 0-3.02.66-3.96 1.88-.66-1.4-1.88-1.88-3.2-1.88-1.6 0-2.73.66-3.39 1.32h-.1c-.28-.66-.93-1.03-2.25-1.03h-2.36v.47h.57c1.6 0 1.88 1.03 1.88 2.63v9.2h2.36v-9.95c.65-.76 1.6-1.41 2.63-1.41 1.32 0 2.07.94 2.07 3.57v7.89h2.36v-7.9c0-.56 0-1.4-.1-1.87.57-.75 1.7-1.7 2.73-1.7 1.32 0 2.07.95 2.07 3.58v7.89h2.36v-7.9c0-3.85-1.7-4.79-3.67-4.79m12.42 0c-1.97 0-3 .76-3.57 1.41h-.1c-.28-.75-.94-1.22-2.26-1.22h-2.35v.57h.56c1.6 0 1.89 1.03 1.89 2.63v14.28h2.35v-5.54a7.4 7.4 0 0 0 3.3.75c3.38 0 4.99-2.92 4.99-6.49-.1-3.47-1.7-6.39-4.8-6.39m-1.03 11.84c-.76 0-1.7-.37-2.54-.75v-8.45c.56-.76 1.31-1.6 2.73-1.6 2.07 0 3 2.35 3 5.35.1 3.1-.84 5.45-3.2 5.45m15.06-11.46c-.37-.28-1.03-.38-1.6-.38-1.6 0-2.63.76-3.2 1.41-.28-.75-.94-1.22-2.26-1.22h-2.07v.57h.28c1.6 0 1.89 1.03 1.89 2.63v9.2h2.35v-9.67a3.1 3.1 0 0 1 2.54-1.32c.94 0 1.7.28 2.07.75l1.04-.75c-.38-.56-.57-.94-1.04-1.22m6.22-.38c-3.3 0-5.18 2.92-5.18 6.49s1.88 6.48 5.55 6.48c1.98 0 3.58-.75 4.71-2.72l-.56-.38c-.95 1.32-1.98 2.07-3.68 2.07-2.26 0-3.57-2.07-3.57-4.98h7.81l.1-1.04c.09-3.85-1.6-5.92-5.18-5.92m-2.36 5.83c0-2.63 1.23-4.6 2.73-4.6 1.89 0 2.73 1.69 2.73 4.6zm14.88 0-1.6-.66c-1.32-.56-2.07-1.31-2.07-2.25 0-1.04.94-1.88 2.63-1.88 2.07 0 3.3 1.03 3.58 2.72h.57c0-1.31 0-2.06-.66-2.72s-1.98-1.04-3.96-1.04c-2.54 0-4.33 1.23-4.33 3.39 0 1.69 1.23 2.72 3.2 3.57l1.6.66c1.6.65 2.36 1.31 2.36 2.34 0 1.04-.94 1.88-2.92 1.88-2.26 0-3.4-1.03-3.67-2.72h-.57c0 1.31 0 2.07.66 2.72s1.98 1.04 4.05 1.04c2.63 0 4.61-1.22 4.61-3.39 0-1.87-1.22-2.81-3.48-3.66m10.73 0-1.6-.66c-1.32-.56-2.07-1.31-2.07-2.25 0-1.04.94-1.88 2.64-1.88 2.07 0 3.3 1.03 3.57 2.72h.57c0-1.31 0-2.06-.66-2.72s-1.98-1.04-3.95-1.04c-2.55 0-4.34 1.23-4.34 3.39 0 1.69 1.23 2.72 3.2 3.57l1.6.66c1.6.65 2.36 1.31 2.36 2.34 0 1.04-.94 1.88-2.92 1.88-2.26 0-3.39-1.03-3.67-2.72h-.57c0 1.31 0 2.07.66 2.72s1.98 1.04 4.05 1.04c2.64 0 4.62-1.22 4.62-3.39 0-1.87-1.23-2.81-3.49-3.66m6.87-7.14c.76 0 1.23-.47 1.23-1.22 0-.94-.66-1.7-1.5-1.7-.76 0-1.23.48-1.23 1.23 0 .94.66 1.69 1.5 1.69m-.84 1.6h-2.36v.47h.57c1.6 0 1.88 1.03 1.88 2.63v9.2h2.36v-9.2c-.1-2.63-.66-3.1-2.45-3.1m9.98-.29c-3.68 0-5.84 2.92-5.84 6.49s2.07 6.48 5.84 6.48c3.67 0 5.83-2.91 5.83-6.48s-2.16-6.49-5.83-6.49m0 11.84c-1.98 0-3.3-2.35-3.3-5.35s1.32-5.36 3.3-5.36 3.3 2.35 3.3 5.36c0 3-1.33 5.35-3.3 5.35m13.55-11.84c-1.6 0-2.73.66-3.38 1.32h-.2c-.28-.66-.93-1.03-2.25-1.03h-2.36v.47h.57c1.6 0 1.88 1.03 1.88 2.63v9.2h2.35v-9.95c.66-.76 1.6-1.41 2.64-1.41 1.41 0 2.92.94 2.92 3.57v7.89h2.35v-7.9c-.09-3.85-2.35-4.79-4.52-4.79"/></g></g></g><defs><clipPath id="clip0_3487_5"><path fill="#fff" d="M0 0h44v44h-44z"/></clipPath><clipPath id="clip1_3487_5"><path fill="#fff" d="M0 0h44v44h-44z"/></clipPath><clipPath id="clip2_3487_5"><path fill="#fff" d="M47 13h110v26.23h-110z"/></clipPath><clipPath id="clip3_3487_5"><path fill="#fff" d="M47 13h110v26.23h-110z"/></clipPath><clipPath id="clip4_3487_5"><path fill="#fff" d="M47 13h110v26.23h-110z"/></clipPath></defs></svg>
